X: 3001
Q:"Strathspey."
M: C
L: 1/16
K: D
uA2 |\
vFuA3 vd3uA vB3vAud3uA | Bd3 A3F EEE2 E4 |\
g2 |\
f3ed3e d3ef3g |
ad3a3f eee2 (e3g) |\
[1 f3ed3e d3ef3e | d3BA3F DDD2 D2 :|\
[2 fa3 ef3 de3 Bd3 | A3Fd3F DDD2 D2 |]


